X:2
T:Catches and Glees
M:6/8
L:1/8
B:Thompson's Compleat Collection of 200 Favourite Country Dances, vol. 3 (London, 1773)
Z:Transcribed and edited by Flynn Titford-Mock, 2007
Z:abc's:AK/Fiddler's Companion
K:C
cef gec|fdc BAG|cef gec|fdB c3::f>dc BAG|f>dc BAG|g2 e/c/ g2 e/c/|fdB c3:||
